2-ui/1-document/01-browser-environment/windowObjects.svg

<?xml version="1.0" encoding="UTF-8"?>
<svg width="367px" height="308px" viewBox="0 0 367 308" version="1.1" xmlns="http://www.w3.org/2000/svg" xmlns:xlink="http://www.w3.org/1999/xlink">
    <!-- Generator: sketchtool 61.2 (101010) - https://sketch.com -->
    <title>windowObjects.svg</title>
    <desc>Created with sketchtool.</desc>
    <g id="combined" stroke="none" stroke-width="1" fill="none" fill-rule="evenodd">
        <g id="windowObjects.svg">
            <rect id="Rectangle-1" stroke="#E8C48E" stroke-width="2" fill="#FFF9EB" x="136" y="10" width="78" height="28"></rect>
            <text id="window" font-family="PTMono-Regular, PT Mono" font-size="14" font-weight="normal" fill="#707175">
                <tspan x="152" y="28">window</tspan>
            </text>
            <rect id="Rectangle-2" stroke="#CFCE95" stroke-width="2" fill="#F5F4D8" x="18" y="80" width="78" height="26"></rect>
            <rect id="Rectangle-2" stroke="#C74A6C" stroke-width="2" fill="#FCDFE1" x="255" y="118" width="83" height="26"></rect>
            <rect id="Rectangle-2" stroke="#99C0C3" stroke-width="2" fill="#EDFCFD" x="110" y="270" width="132" height="26"></rect>
            <text id="document" font-family="PTMono-Regular, PT Mono" font-size="14" font-weight="normal" fill="#727155">
                <tspan x="26" y="97">document</tspan>
            </text>
            <rect id="Rectangle-2" stroke="#C74A6C" stroke-width="2" fill="#FCDFE1" x="255" y="80" width="83" height="26"></rect>
            <text id="Object" font-family="PTMono-Regular, PT Mono" font-size="14" font-weight="normal" fill="#924565">
                <tspan x="271" y="97">Object</tspan>
            </text>
            <rect id="Rectangle-2" stroke="#99C0C3" stroke-width="2" fill="#EDFCFD" x="134" y="80" width="85" height="26"></rect>
            <text id="navigator" font-family="PTMono-Regular, PT Mono" font-size="14" font-weight="normal" fill="#366378">
                <tspan x="138" y="97">navigator</tspan>
            </text>
            <rect id="Rectangle-2" stroke="#99C0C3" stroke-width="2" fill="#EDFCFD" x="134" y="118" width="85" height="26"></rect>
            <text id="screen" font-family="PTMono-Regular, PT Mono" font-size="14" font-weight="normal" fill="#366378">
                <tspan x="151" y="135">screen</tspan>
            </text>
            <rect id="Rectangle-2" stroke="#99C0C3" stroke-width="2" fill="#EDFCFD" x="134" y="156" width="85" height="26"></rect>
            <text id="location" font-family="PTMono-Regular, PT Mono" font-size="14" font-weight="normal" fill="#366378">
                <tspan x="142" y="173">location</tspan>
            </text>
            <rect id="Rectangle-2" stroke="#99C0C3" stroke-width="2" fill="#EDFCFD" x="134" y="194" width="85" height="26"></rect>
            <text id="frames" font-family="PTMono-Regular, PT Mono" font-size="14" font-weight="normal" fill="#366378">
                <tspan x="151" y="211">frames</tspan>
            </text>
            <rect id="Rectangle-2" stroke="#99C0C3" stroke-width="2" fill="#EDFCFD" x="134" y="232" width="85" height="26"></rect>
            <text id="history" font-family="PTMono-Regular, PT Mono" font-size="14" font-weight="normal" fill="#366378">
                <tspan x="147" y="249">history</tspan>
            </text>
            <text id="Array" font-family="PTMono-Regular, PT Mono" font-size="14" font-weight="normal" fill="#924565">
                <tspan x="275" y="135">Array</tspan>
            </text>
            <rect id="Rectangle-3" stroke="#C74A6C" stroke-width="2" fill="#FCDFE1" x="255" y="156" width="83" height="26"></rect>
            <text id="Function" font-family="PTMono-Regular, PT Mono" font-size="14" font-weight="normal" fill="#924565">
                <tspan x="264" y="173">Function</tspan>
            </text>
            <text id="XMLHttpRequest" font-family="PTMono-Regular, PT Mono" font-size="14" font-weight="normal" fill="#366378">
                <tspan x="117" y="287">XMLHttpRequest</tspan>
            </text>
            <text id="BOM" font-family="PTMono-Regular, PT Mono" font-size="14" font-weight="normal" fill="#99C0C3">
                <tspan x="135" y="73">BOM</tspan>
            </text>
            <text id="JavaScript" font-family="PTMono-Regular, PT Mono" font-size="14" font-weight="normal" fill="#C74A6C">
                <tspan x="271" y="73">JavaScript</tspan>
            </text>
            <text id="DOM" font-family="PTMono-Regular, PT Mono" font-size="14" font-weight="normal" fill="#CFCE95">
                <tspan x="17" y="73">DOM</tspan>
            </text>
            <path id="Line" d="M177.5,40.5 L177.5,58.5 L183.5,58.5 L176.5,72.5 L169.5,58.5 L175.5,58.5 L175.5,40.5 L177.5,40.5 Z" fill="#EE6B47" fill-rule="nonzero"></path>
            <path id="Line-2" d="M132.749841,40.1080303 L133.89197,41.7498407 L133.071064,42.3209052 L98.564,66.325 L101.990124,71.2514336 L86.5,73.5 L93.9952214,59.7587608 L97.421,64.683 L131.928936,40.6790948 L132.749841,40.1080303 Z" fill="#EE6B47" fill-rule="nonzero"></path>
            <text id="…" font-family="PTMono-Regular, PT Mono" font-size="24" font-weight="normal" fill="#727155">
                <tspan x="50" y="122">…</tspan>
            </text>
            <text id="…-2" font-family="PTMono-Regular, PT Mono" font-size="24" font-weight="normal" fill="#924565">
                <tspan x="287" y="201">…</tspan>
            </text>
            <path id="Line" d="M217.226047,39.0968214 L218.052861,39.6592976 L256.496,65.811 L259.87156,60.851528 L267.509615,74.5138889 L251.996893,72.4269168 L255.371,67.465 L216.927908,41.3129246 L216.101095,40.7504484 L217.226047,39.0968214 Z" fill="#EE6B47" fill-rule="nonzero"></path>
        </g>
    </g>
</svg>

<svg xmlns="http://www.w3.org/2000/svg" width="367" height="308" viewBox="0 0 367 308"><defs><style>@import url(https://fonts.googleapis.com/css?family=Open+Sans:bold,italic,bolditalic%7CPT+Mono);@font-face{font-family:&apos;PT Mono&apos;;font-weight:700;font-style:normal;src:local(&apos;PT MonoBold&apos;),url(/font/PTMonoBold.woff2) format(&apos;woff2&apos;),url(/font/PTMonoBold.woff) format(&apos;woff&apos;),url(/font/PTMonoBold.ttf) format(&apos;truetype&apos;)}</style></defs><g id="combined" fill="none" fill-rule="evenodd" stroke="none" stroke-width="1"><g id="windowObjects.svg"><path id="Rectangle-1" fill="#FFF9EB" stroke="#E8C48E" stroke-width="2" d="M136 10h78v28h-78z"/><text id="window" fill="#707175" font-family="PTMono-Regular, PT Mono" font-size="14" font-weight="normal"><tspan x="152" y="28">window</tspan></text><path id="Rectangle-2" fill="#F5F4D8" stroke="#CFCE95" stroke-width="2" d="M18 80h78v26H18z"/><path id="Rectangle-2" fill="#FCDFE1" stroke="#C74A6C" stroke-width="2" d="M255 118h83v26h-83z"/><path id="Rectangle-2" fill="#EDFCFD" stroke="#99C0C3" stroke-width="2" d="M110 270h132v26H110z"/><text id="document" fill="#727155" font-family="PTMono-Regular, PT Mono" font-size="14" font-weight="normal"><tspan x="26" y="97">document</tspan></text><path id="Rectangle-2" fill="#FCDFE1" stroke="#C74A6C" stroke-width="2" d="M255 80h83v26h-83z"/><text id="Object" fill="#924565" font-family="PTMono-Regular, PT Mono" font-size="14" font-weight="normal"><tspan x="271" y="97">Object</tspan></text><path id="Rectangle-2" fill="#EDFCFD" stroke="#99C0C3" stroke-width="2" d="M134 80h85v26h-85z"/><text id="navigator" fill="#366378" font-family="PTMono-Regular, PT Mono" font-size="14" font-weight="normal"><tspan x="138" y="97">navigator</tspan></text><path id="Rectangle-2" fill="#EDFCFD" stroke="#99C0C3" stroke-width="2" d="M134 118h85v26h-85z"/><text id="screen" fill="#366378" font-family="PTMono-Regular, PT Mono" font-size="14" font-weight="normal"><tspan x="151" y="135">screen</tspan></text><path id="Rectangle-2" fill="#EDFCFD" stroke="#99C0C3" stroke-width="2" d="M134 156h85v26h-85z"/><text id="location" fill="#366378" font-family="PTMono-Regular, PT Mono" font-size="14" font-weight="normal"><tspan x="142" y="173">location</tspan></text><path id="Rectangle-2" fill="#EDFCFD" stroke="#99C0C3" stroke-width="2" d="M134 194h85v26h-85z"/><text id="frames" fill="#366378" font-family="PTMono-Regular, PT Mono" font-size="14" font-weight="normal"><tspan x="151" y="211">frames</tspan></text><path id="Rectangle-2" fill="#EDFCFD" stroke="#99C0C3" stroke-width="2" d="M134 232h85v26h-85z"/><text id="history" fill="#366378" font-family="PTMono-Regular, PT Mono" font-size="14" font-weight="normal"><tspan x="147" y="249">history</tspan></text><text id="Array" fill="#924565" font-family="PTMono-Regular, PT Mono" font-size="14" font-weight="normal"><tspan x="275" y="135">Array</tspan></text><path id="Rectangle-3" fill="#FCDFE1" stroke="#C74A6C" stroke-width="2" d="M255 156h83v26h-83z"/><text id="Function" fill="#924565" font-family="PTMono-Regular, PT Mono" font-size="14" font-weight="normal"><tspan x="264" y="173">Function</tspan></text><text id="XMLHttpRequest" fill="#366378" font-family="PTMono-Regular, PT Mono" font-size="14" font-weight="normal"><tspan x="117" y="287">XMLHttpRequest</tspan></text><text id="BOM" fill="#99C0C3" font-family="PTMono-Regular, PT Mono" font-size="14" font-weight="normal"><tspan x="135" y="73">BOM</tspan></text><text id="JavaScript" fill="#C74A6C" font-family="PTMono-Regular, PT Mono" font-size="14" font-weight="normal"><tspan x="271" y="73">JavaScript</tspan></text><text id="DOM" fill="#CFCE95" font-family="PTMono-Regular, PT Mono" font-size="14" font-weight="normal"><tspan x="17" y="73">DOM</tspan></text><path id="Line" fill="#EE6B47" fill-rule="nonzero" d="M177.5 40.5v18h6l-7 14-7-14h6v-18h2z"/><path id="Line-2" fill="#EE6B47" fill-rule="nonzero" d="M132.75 40.108l1.142 1.642-.82.57-34.508 24.005 3.426 4.926L86.5 73.5l7.495-13.741 3.426 4.924 34.508-24.004.82-.571z"/><text id="…" fill="#727155" font-family="PTMono-Regular, PT Mono" font-size="24" font-weight="normal"><tspan x="50" y="122">…</tspan></text><text id="…-2" fill="#924565" font-family="PTMono-Regular, PT Mono" font-size="24" font-weight="normal"><tspan x="287" y="201">…</tspan></text><path id="Line" fill="#EE6B47" fill-rule="nonzero" d="M217.226 39.097l.827.562 38.443 26.152 3.376-4.96 7.638 13.663-15.513-2.087 3.374-4.962-38.443-26.152-.827-.563 1.125-1.653z"/></g></g></svg>
